src/4-icons/receive.svg

<svg width="260" height="260" viewBox="0 0 260 260" fill="none" xmlns="http://www.w3.org/2000/svg">
<path d="M214.675 65.9674C214.584 63.2112 213.98 60.6053 212.864 58.3024C211.054 54.5154 209.006 51.7285 205.656 50.0314C202.308 48.3048 198.656 47.5782 195.005 47.5474C191.565 47.5474 188.125 48.2752 184.927 49.7285C184.626 48.4563 184.204 47.2137 183.63 46.093C181.79 42.2457 178.711 39.4279 175.332 37.6705C171.953 35.9132 168.211 35.0954 164.53 35.0954C161.182 35.0954 157.801 35.8232 154.664 37.2457C154.362 36.0942 153.969 34.9439 153.457 33.9132C151.586 30.0658 148.509 27.2185 145.13 25.4611C141.72 23.6742 137.979 22.8564 134.237 22.8564C131.19 22.8564 128.082 23.4327 125.185 24.6138C123.868 25.1506 118.875 29.5 118.875 29.5C117.005 25.6527 117.378 26.5 114.956 24.6047C111.546 22.8166 107.805 22 104.063 22C99.1147 22 94.0454 23.4544 89.9108 26.7266C87.8588 28.3633 86.0791 30.5136 84.8415 33.0591C83.6039 35.6047 82.9404 38.5727 82.9404 41.6638C82.9404 48.3289 82.9404 43.8919 82.9404 85.6397L82.3504 85.2464C78.8228 82.8946 74.6779 81.6397 70.4382 81.6397V81.6397C58.9906 81.6397 49.5555 90.6193 48.9895 102.053L47.1856 138.494C46.403 154.303 48.7656 170.11 54.1366 184.999L70.8723 231.393C72.3024 235.358 76.0378 238 80.2523 238C110.177 238 171.161 238 179.494 238C183.024 238 186.252 237.546 189.18 236.456C191.383 235.638 193.404 234.456 195.094 232.941C197.659 230.669 199.439 227.82 200.707 224.821C201.974 221.792 202.819 218.52 203.543 214.946C204.539 209.947 205.746 202.343 207.043 193.375C208.974 179.954 211.057 163.534 212.716 148.932C213.53 141.631 214.254 94.7839 214.799 88.9674C215.311 76.1508 214.676 71.3946 214.735 68.0917C214.705 67.5461 214.705 66.3035 214.675 65.971V65.9674ZM203.634 66.9663V67.8148C203.543 71.4798 202.001 125.449 201.154 133.87C199.887 146.564 198.955 162.742 196.995 177.526C195.034 192.28 193.043 205.701 191.655 212.578C191.112 215.365 190.508 217.668 189.815 219.455C189.303 220.787 188.759 221.818 188.216 222.575C187.371 223.727 186.616 224.333 185.409 224.908C184.173 225.453 182.301 225.877 179.495 225.877C169.499 225.877 105.752 225.877 84.1005 225.877C81.9711 225.877 80.0901 224.528 79.3918 222.517L63.9451 178.024C60.2735 167.448 58.427 156.324 58.4848 145.129L58.6926 104.883C58.7291 97.818 64.7749 92.2803 71.8164 92.8627V92.8627C78.1036 93.3827 82.9415 98.6372 82.9415 104.946V113.783C82.9415 119.776 82.9282 148.913 82.9282 154V154C82.9282 160.473 87.3137 166.123 93.5842 167.73L157.576 184.122C161.292 185.074 164.908 182.267 164.908 178.431V178.431C164.908 175.808 163.169 173.503 160.648 172.783L98.537 155.036C96.3905 154.423 94.9106 152.479 94.911 150.247C94.9181 117.198 95.0107 49.1465 95.0107 41.6887C95.0107 40.265 95.283 39.2342 95.7049 38.3857C96.3084 37.1135 97.3043 36.1431 98.7823 35.3562C100.231 34.5988 102.131 34.1147 104.063 34.1443C106.657 34.1443 109.132 34.9621 110.67 36.2354C111.454 36.8709 112.028 37.5692 112.42 38.4165C112.843 39.265 113.115 40.2946 113.115 41.7194C113.115 50.717 113.115 63.1902 113.115 89.577C113.115 97.9606 113.115 113.971 113.115 123.698C113.115 127.03 115.816 129.725 119.149 129.725V129.725C122.482 129.725 125.184 127.061 125.184 123.728C125.184 105.279 125.184 50.1525 125.184 42.577C125.184 41.1534 125.456 40.1238 125.878 39.2753C126.481 38.0031 127.477 37.0338 128.955 36.2457C130.404 35.4883 132.304 35.0043 134.236 35.0339C136.831 35.0339 139.305 35.8516 140.844 37.1238C141.629 37.7593 142.202 38.4563 142.594 39.3048C143.016 40.1534 143.289 41.1829 143.289 42.6066C143.289 47.0598 143.289 51.2101 143.289 54.7249V133.748C143.289 137.081 145.99 139.783 149.323 139.783V139.783C152.656 139.783 155.358 137.096 155.358 133.763C155.358 122.303 155.358 94.8592 155.358 54.7249C155.358 53.3616 155.63 52.3616 156.052 51.5438C156.656 50.332 157.681 49.332 159.16 48.545C160.639 47.7581 162.599 47.3036 164.531 47.3036C167.127 47.3036 169.57 48.1214 171.078 49.3332C171.833 49.9391 172.406 50.6362 172.798 51.4539C173.191 52.3024 173.462 53.3012 173.462 54.7261L172.527 143.96C172.492 147.299 175.189 150.025 178.529 150.025V150.025C181.845 150.025 184.567 147.339 184.615 144.024C184.9 124.579 185.838 64.6304 186.194 63.9663C186.798 62.8148 187.854 61.7852 189.423 60.9971C190.991 60.2089 193.014 59.7249 195.005 59.7556C197.569 59.7556 199.983 60.5426 201.371 61.6941C202.094 62.2704 202.607 62.9059 202.999 63.6929C203.361 64.4811 203.632 65.4503 203.632 66.8739V66.9651L203.634 66.9663Z" fill="black"/>
</svg>

<svg width="260" height="260" viewBox="0 0 260 260" fill="none" xmlns="http://www.w3.org/2000/svg"><path d="M214.675 65.967c-.091-2.756-.695-5.362-1.811-7.665-1.81-3.787-3.858-6.574-7.208-8.27-3.348-1.727-7-2.454-10.651-2.485-3.44 0-6.88.728-10.078 2.181-.301-1.272-.723-2.514-1.297-3.635-1.84-3.847-4.919-6.665-8.298-8.423-3.379-1.757-7.121-2.575-10.802-2.575-3.348 0-6.729.728-9.866 2.15-.302-1.15-.695-2.301-1.207-3.332-1.871-3.847-4.948-6.694-8.327-8.452-3.41-1.787-7.151-2.605-10.893-2.605a24.08 24.08 0 0 0-9.052 1.758c-1.317.537-6.31 4.886-6.31 4.886-1.87-3.847-1.497-3-3.919-4.895-3.41-1.788-7.151-2.605-10.893-2.605-4.948 0-10.018 1.454-14.152 4.727a18.44 18.44 0 0 0-5.07 6.332c-1.237 2.546-1.9 5.514-1.9 8.605V85.64l-.59-.394a21.475 21.475 0 0 0-11.913-3.606c-11.447 0-20.883 8.98-21.449 20.413l-1.803 36.441a119.62 119.62 0 0 0 6.95 46.505l16.736 46.394a9.965 9.965 0 0 0 9.38 6.607h99.242c3.53 0 6.758-.454 9.686-1.544 2.203-.818 4.224-2 5.914-3.515 2.565-2.272 4.345-5.121 5.613-8.12 1.267-3.029 2.112-6.301 2.836-9.875.996-4.999 2.203-12.603 3.5-21.571 1.931-13.421 4.014-29.841 5.673-44.443.814-7.301 1.538-54.148 2.083-59.965.512-12.816-.123-17.572-.064-20.875-.03-.546-.03-1.788-.06-2.121v-.004Zm-11.041 1v.848c-.091 3.665-1.633 57.634-2.48 66.055-1.267 12.694-2.199 28.872-4.159 43.656-1.961 14.754-3.952 28.175-5.34 35.052-.543 2.787-1.147 5.09-1.84 6.877-.512 1.332-1.056 2.363-1.599 3.12-.845 1.152-1.6 1.758-2.807 2.333-1.236.545-3.108.969-5.914.969H84.1a4.982 4.982 0 0 1-4.708-3.36l-15.447-44.493a98.749 98.749 0 0 1-5.46-32.895l.208-40.246c.036-7.065 6.082-12.603 13.123-12.02a12.124 12.124 0 0 1 11.126 12.083v8.837c0 5.993-.014 35.13-.014 40.217a14.174 14.174 0 0 0 10.656 13.73l63.992 16.392c3.716.952 7.332-1.855 7.332-5.691a5.874 5.874 0 0 0-4.26-5.648l-62.111-17.747a4.977 4.977 0 0 1-3.626-4.789c.007-33.049.1-101.1.1-108.558 0-1.424.272-2.455.694-3.303.603-1.273 1.6-2.243 3.077-3.03 1.449-.757 3.349-1.241 5.281-1.212 2.594 0 5.069.818 6.607 2.091.784.636 1.358 1.334 1.75 2.181.423.849.695 1.879.695 3.303v81.979a6.028 6.028 0 0 0 6.034 6.027c3.333 0 6.035-2.664 6.035-5.997V42.577c0-1.424.272-2.453.694-3.302.603-1.272 1.599-2.241 3.077-3.03 1.449-.757 3.349-1.24 5.281-1.211 2.595 0 5.069.818 6.608 2.09.785.635 1.358 1.332 1.75 2.18.422.85.695 1.879.695 3.303v91.141a6.034 6.034 0 0 0 6.034 6.035c3.333 0 6.035-2.687 6.035-6.02V54.725c0-1.363.272-2.363.694-3.181.604-1.212 1.629-2.212 3.108-2.999 1.479-.787 3.439-1.241 5.371-1.241 2.596 0 5.039.817 6.547 2.03.755.605 1.328 1.302 1.72 2.12.393.848.664 1.847.664 3.272l-.935 89.234a6.002 6.002 0 0 0 6.002 6.065c3.316 0 6.038-2.686 6.086-6.001.285-19.445 1.223-79.394 1.579-80.058.604-1.151 1.66-2.18 3.229-2.969 1.568-.788 3.591-1.272 5.582-1.241 2.564 0 4.978.787 6.366 1.938a5.756 5.756 0 0 1 1.628 1.999c.362.788.633 1.757.633 3.18v.092l.002.001Z" fill="#000"/></svg>
